X: 12746
T: Father Newman's
R: reel
M: 4/4
K: Gmajor
z|~e3g edBA|~G3A BABd|ea~a2 bagb|agea gedB|
deeg edBA|~G3A BABd|ea~a2 gedg|edBA ~G3:|
|:e|dG~G2 FDcA|Bg~g2 fdaf|dg~g2 bgag|gfge fdcA|
dG~G2 FDcA|Bg~g2 fdad|ea~a2 gedg|edBA ~G3:|

